X: 40486
T: Tomeen O'Dea's
R: reel
M: 4/4
K: Gmajor
B2AG EGDG|EAAG ABGA|B2AG EGDG|EG~G2 EG~G2|
B2AG GEDG|EAAG ABGA|B2AG GEDG|EG~G2 EG~G2|
G2Bd egdB|GBdB cA~A2|G2Bd edBc|d2Ac B2AB|
G2Bd gedB|GBdB cA~A2|G2Bd edef|~g3a gedc|

